assets/images/payment-methods/woo.svg

<svg width="64" height="40" viewBox="0 0 64 40" fill="none" xmlns="http://www.w3.org/2000/svg"><rect width="64" height="40" rx="3" fill="#674399"></rect><path fill-rule="evenodd" clip-rule="evenodd" d="M10.6181 13H33.5808C35.034 13 36.2104 14.1676 36.2104 15.6099V24.3096C36.2104 25.7519 35.034 26.9194 33.5808 26.9194H25.3461L26.4764 29.6667L21.5055 26.9194H10.6296C9.17648 26.9194 8.00008 25.7519 8.00008 24.3096V15.6099C7.98856 14.1791 9.16494 13 10.6181 13ZM9.40723 15.3696C9.56869 15.1521 9.8109 15.0376 10.1338 15.0147C10.722 14.9689 11.0565 15.2436 11.1373 15.8389C11.4948 18.2312 11.8868 20.2574 12.3021 21.9172L14.8279 17.1437C15.0585 16.7089 15.3468 16.4799 15.6928 16.457C16.2003 16.4226 16.5117 16.7431 16.6385 17.4185C16.9269 18.9409 17.296 20.2345 17.7342 21.3333C18.0341 18.4258 18.5415 16.331 19.2566 15.0376C19.4296 14.7171 19.6834 14.5568 20.0178 14.534C20.283 14.511 20.5253 14.5911 20.7444 14.7628C20.9636 14.9346 21.0788 15.1521 21.102 15.4153C21.1135 15.6214 21.0788 15.793 20.9866 15.9648C20.5368 16.789 20.1678 18.1741 19.8679 20.0971C19.5795 21.9629 19.4757 23.4167 19.545 24.4583C19.568 24.7446 19.5219 24.9964 19.4066 25.2139C19.2681 25.4657 19.0606 25.603 18.7953 25.6259C18.4954 25.6489 18.184 25.5115 17.8841 25.2024C16.8115 24.115 15.9581 22.4895 15.3353 20.326C14.5856 21.7912 14.0321 22.8901 13.6746 23.6227C12.994 24.9163 12.4174 25.5801 11.933 25.6145C11.6216 25.6374 11.3564 25.3741 11.1256 24.8247C10.5375 23.3251 9.90316 20.4291 9.22269 16.1365C9.1881 15.8389 9.24577 15.5756 9.40723 15.3696ZM34.2034 17.1668C33.7883 16.4456 33.177 16.0106 32.3582 15.8389C32.139 15.7931 31.9314 15.7702 31.7354 15.7702C30.6282 15.7702 29.7286 16.3426 29.0251 17.4873C28.4253 18.4602 28.1255 19.5363 28.1255 20.7153C28.1255 21.5967 28.31 22.3522 28.679 22.9818C29.0942 23.7029 29.7055 24.1379 30.5244 24.3096C30.7436 24.3554 30.9511 24.3783 31.1472 24.3783C32.2659 24.3783 33.1655 23.8059 33.8575 22.6613C34.4572 21.6768 34.7571 20.6008 34.7571 19.4218C34.7571 18.529 34.5726 17.7849 34.2034 17.1668ZM32.7503 20.3375C32.5888 21.093 32.3005 21.654 31.8738 22.0317C31.5393 22.3293 31.2279 22.4552 30.9396 22.398C30.6628 22.3407 30.4322 22.1003 30.2591 21.654C30.1208 21.2991 30.0515 20.9443 30.0515 20.6123C30.0515 20.326 30.0746 20.0399 30.1323 19.7767C30.236 19.3073 30.4322 18.8495 30.7436 18.4145C31.1241 17.8535 31.5278 17.6246 31.943 17.7048C32.2198 17.762 32.4504 18.0024 32.6234 18.4487C32.7618 18.8036 32.831 19.1585 32.831 19.4904C32.831 19.7881 32.7965 20.0743 32.7503 20.3375ZM25.1263 15.8389C25.9336 16.0106 26.5564 16.4456 26.9716 17.1668C27.3407 17.7849 27.5252 18.529 27.5252 19.4218C27.5252 20.6008 27.2253 21.6768 26.6256 22.6613C25.9336 23.8059 25.034 24.3783 23.9153 24.3783C23.7193 24.3783 23.5116 24.3554 23.2925 24.3096C22.4736 24.1379 21.8624 23.7029 21.4471 22.9818C21.0781 22.3522 20.8936 21.5967 20.8936 20.7153C20.8936 19.5363 21.1935 18.4602 21.7931 17.4873C22.4967 16.3426 23.3963 15.7702 24.5035 15.7702C24.6996 15.7702 24.9071 15.7931 25.1263 15.8389ZM24.6418 22.0317C25.0686 21.654 25.3569 21.093 25.5184 20.3375C25.576 20.0743 25.5992 19.7881 25.5992 19.4904C25.5992 19.1585 25.5299 18.8036 25.3915 18.4487C25.2185 18.0024 24.9879 17.762 24.7111 17.7048C24.2958 17.6246 23.8922 17.8535 23.5116 18.4145C23.2002 18.8495 23.0041 19.3073 22.9004 19.7767C22.8427 20.0399 22.8196 20.326 22.8196 20.6123C22.8196 20.9443 22.8888 21.2991 23.0272 21.654C23.2002 22.1003 23.4309 22.3407 23.7077 22.398C23.996 22.4552 24.3074 22.3293 24.6418 22.0317ZM40.9717 15.3809H38.5264V24.2554H40.5022V20.8785H40.8413C41.776 20.8785 42.5063 20.6347 43.0323 20.1472C43.5627 19.6553 43.8278 18.9772 43.8278 18.1131C43.8278 17.2932 43.567 16.6329 43.0454 16.1321C42.5237 15.6313 41.8325 15.3809 40.9717 15.3809ZM40.5022 19.1767V17.0827C40.9587 17.0916 41.2891 17.1758 41.4934 17.3353C41.6977 17.4905 41.7999 17.7585 41.7999 18.1396C41.7999 18.4942 41.6934 18.7535 41.4804 18.9174C41.2717 19.0814 40.9456 19.1679 40.5022 19.1767ZM50.2402 24.2554H48.186L47.8535 22.773H45.7668L45.4213 24.2554H43.4064L45.7147 15.3809H47.9318L50.2402 24.2554ZM47.4753 21.1775C47.1798 19.8569 46.958 18.6006 46.8102 17.4084H46.7841C46.6276 18.636 46.4081 19.8923 46.1255 21.1775H47.4753ZM51.5789 15.3809H49.3618L51.6637 20.2403V24.2554H53.6655V20.2403L56 15.3809H53.7307C53.2483 16.6395 52.8961 17.6234 52.6744 18.3324H52.6483C52.4266 17.6411 52.0701 16.6572 51.5789 15.3809Z" fill="white"></path></svg>

<svg xmlns="http://www.w3.org/2000/svg" width="64" height="40" fill="none"><rect width="64" height="40" fill="#674399" rx="3"/><path fill="#fff" fill-rule="evenodd" d="M10.62 13h22.96a2.62 2.62 0 0 1 2.63 2.61v8.7a2.62 2.62 0 0 1-2.63 2.6h-8.23l1.13 2.76-4.97-2.75H10.63A2.62 2.62 0 0 1 8 24.3v-8.7A2.6 2.6 0 0 1 10.62 13ZM9.4 15.37c.16-.22.4-.33.72-.36.6-.04.93.23 1 .83.36 2.4.76 4.42 1.17 6.08l2.53-4.78c.23-.43.52-.66.86-.68.51-.04.82.28.95.96.29 1.52.66 2.81 1.1 3.91.3-2.9.8-5 1.52-6.3a.89.89 0 0 1 .76-.5 1 1 0 0 1 .72.23.9.9 0 0 1 .36.66c.01.2-.02.37-.11.54-.45.83-.82 2.21-1.12 4.14-.3 1.86-.4 3.32-.32 4.36.02.28-.03.54-.14.75a.74.74 0 0 1-.61.42c-.3.02-.62-.12-.92-.43-1.07-1.09-1.92-2.71-2.54-4.87l-1.67 3.3c-.68 1.29-1.25 1.95-1.74 1.98-.3.03-.57-.24-.8-.79-.6-1.5-1.23-4.4-1.9-8.68-.04-.3.02-.56.18-.77Zm24.8 1.8a2.65 2.65 0 0 0-1.85-1.33 3.05 3.05 0 0 0-.62-.07c-1.11 0-2.01.57-2.71 1.72-.6.97-.9 2.05-.9 3.23 0 .88.18 1.63.55 2.26a2.65 2.65 0 0 0 1.84 1.33c.22.05.43.07.63.07 1.12 0 2.02-.57 2.7-1.72.6-.98.9-2.06.9-3.24 0-.9-.18-1.64-.55-2.25Zm-1.46 3.17a3.02 3.02 0 0 1-.88 1.7c-.33.29-.64.42-.93.36-.28-.06-.5-.3-.68-.75-.14-.35-.2-.7-.2-1.04a3.69 3.69 0 0 1 .7-2.2c.36-.56.77-.79 1.18-.7.28.05.51.3.68.74.14.35.21.7.21 1.04 0 .3-.03.58-.08.85Zm-7.62-4.5c.8.17 1.43.6 1.84 1.33.37.61.56 1.36.56 2.25a6.1 6.1 0 0 1-.9 3.24c-.7 1.15-1.6 1.72-2.71 1.72-.2 0-.4-.02-.63-.07a2.66 2.66 0 0 1-1.84-1.33 4.4 4.4 0 0 1-.56-2.26c0-1.18.3-2.26.9-3.23.7-1.15 1.6-1.72 2.71-1.72.2 0 .4.02.63.07Zm-.49 6.2c.43-.39.72-.95.88-1.7a4 4 0 0 0 .08-.85c0-.33-.07-.69-.2-1.04-.18-.45-.41-.69-.69-.75-.41-.08-.82.15-1.2.71a3.69 3.69 0 0 0-.69 2.2c0 .33.07.69.2 1.04.18.45.41.7.69.75.29.06.6-.07.93-.37Zm16.33-6.66h-2.44v8.88h1.97v-3.38h.34a3.1 3.1 0 0 0 2.2-.73c.52-.5.79-1.17.79-2.04 0-.82-.26-1.48-.78-1.98a2.87 2.87 0 0 0-2.08-.75Zm-.47 3.8v-2.1c.46.01.79.1 1 .26.2.15.3.42.3.8 0 .35-.1.61-.32.78-.2.16-.53.25-.98.26Zm9.74 5.08h-2.05l-.34-1.49h-2.08l-.35 1.49h-2.01l2.3-8.88h2.22l2.31 8.88Zm-2.76-3.08c-.3-1.32-.52-2.58-.67-3.77h-.03a42.7 42.7 0 0 1-.65 3.77h1.35Zm4.1-5.8h-2.22l2.3 4.86v4.02h2v-4.02L56 15.38h-2.27a53.23 53.23 0 0 0-1.06 2.95h-.02a59.3 59.3 0 0 0-1.07-2.95Z" clip-rule="evenodd"/></svg>
